img/icon-mark.svg

<?xml version="1.0" encoding="UTF-8"?>
<svg width="66px" height="66px" viewBox="0 0 66 66" version="1.1" xmlns="http://www.w3.org/2000/svg" xmlns:xlink="http://www.w3.org/1999/xlink">
    <!-- Generator: Sketch 53.2 (72643) - https://sketchapp.com -->
    <title>icon-mark</title>
    <desc>Created with Sketch.</desc>
    <g id="Pages" stroke="none" stroke-width="1" fill="none" fill-rule="evenodd">
        <g id="Catalog" transform="translate(-371.000000, -466.000000)">
            <g id="cart-+" transform="translate(-15.000000, -1.000000)">
                <g id="icon-mark" transform="translate(386.000000, 467.000000)">
                    <g>
                        <circle id="Oval" fill="#63A63E" fill-rule="nonzero" cx="33" cy="33" r="33"></circle>
                        <path d="M49.641,21.066 C49.2498193,20.6772656 48.6181807,20.6772656 48.227,21.066 L29.788,39.504 C29.3968193,39.8927344 28.7651807,39.8927344 28.374,39.504 L20.234,31.365 C19.8428193,30.9762656 19.2111807,30.9762656 18.82,31.365 L15.285,34.9 C14.8962656,35.2911807 14.8962656,35.9228193 15.285,36.314 L28.374,49.404 C28.7651807,49.7927344 29.3968193,49.7927344 29.788,49.404 L33.324,45.868 L34.738,44.454 L53.176,26.016 C53.5647344,25.6248193 53.5647344,24.9931807 53.176,24.602 L49.641,21.066 L49.641,21.066 Z" id="Shape" fill="#FFFFFF" fill-rule="nonzero"></path>
                    </g>
                </g>
            </g>
        </g>
    </g>
</svg>

<svg xmlns="http://www.w3.org/2000/svg" width="66" height="66" viewBox="0 0 66 66"><circle fill="#63A63E" cx="33" cy="33" r="33"/><path fill="#FFF" d="M49.641 21.066a1.003 1.003 0 0 0-1.414 0L29.788 39.504a1.003 1.003 0 0 1-1.414 0l-8.14-8.139a1.003 1.003 0 0 0-1.414 0L15.285 34.9a1.003 1.003 0 0 0 0 1.414l13.089 13.09a1.003 1.003 0 0 0 1.414 0l3.536-3.536 1.414-1.414 18.438-18.438a1.003 1.003 0 0 0 0-1.414l-3.535-3.536z"/></svg>
